X:1
T:Title
%%score { ( 1 3 ) | ( 2 4 ) }
L:1/8
M:3/4
K:Ab
V:1 treble nm="Grand Piano"
V:3 treble 
V:2 bass 
V:4 bass 
V:1
 z2 z2[Q:1/4=100] [CE]2 | [CE]3 [DF] [CE][EA] | [FB]<[A,FA]- [A,FA]2 [A,DF]2 | %3
 [G,B,E]3 [B,EG] [DGB][FGd] | [EAc]4 [EAc]2 | [FB]3 [FA] [FA][DF] | [DF]<[CE]- [CE]2 [EA]2 | %7
 c3 A EB |[M:2/4] A4 |[M:1/4] e2 |[M:3/4] e3 e e[EAc] | [CFA]4 [GB]2 | [GB]<c- c2 c2 | d3 d dd | %14
 c2 A2 [EAc]2 | [EGB]4 [Gf]>e | e3 e e[EAc] | [CFA]4 [EGB]2 | [EGB]<[EAc]- [EAc]2 [EAc]2 | %19
 [DFB]3 [B,F] [Fd][FB] | E2 A2 B2 |[M:2/4] [CA]4 |] %22
V:2
 z2 z2 [A,,A,]2 | [A,,A,]3 [A,,A,] [A,,A,][C,A,] | [D,A,]<D,- D,2 D,2 | E,3 E, E,E, | A,4 A,,2 | %5
 [D,D]3 [D,D] [D,D][D,A,] | [A,,A,]<[A,,A,]- [A,,A,]2 [C,A,]2 | [E,A,E]3 [E,CE] [E,G,][E,DE] | %8
[M:2/4][K:treble] [A,CE]4 |[M:1/4] [A,CA]2 |[M:3/4] [A,CA]3 [A,CA] [A,CA][K:bass]A,, | F,4 [E,E]2 | %12
 [E,E]<[K:treble][A,EA]- [A,EA]2 [A,E]2 | [A,F]3 [A,F] [A,F][A,F] | A,4 z2 | %15
 E,4 [E,D]>[K:treble][A,CA] | [A,CA]3 [A,CA] [A,CA][K:bass]A,, | F,4 E,2 | E,<A,- A,2 C,2 | %19
 D,3 D, [B,,B,][D,B,] | [A,C]2 z2 z2 |[M:2/4] [A,,A,]4 |] %22
V:3
 x6 | x6 | x6 | x6 | x6 | x6 | x6 | x6 |[M:2/4] x4 |[M:1/4] x2 |[M:3/4] x6 | x6 | x6 | x6 | E4 z2 | %15
 x6 | x6 | x6 | x6 | x6 | x6 |[M:2/4] x4 |] %22
V:4
 x6 | x6 | x6 | x6 | x6 | x6 | x6 | x6 |[M:2/4][K:treble] x4 |[M:1/4] x2 |[M:3/4] x5[K:bass] x | %11
 x6 | x/[K:treble] x11/2 | x6 | A,,2 C,2 A,,2 | x11/2[K:treble] x/ | x5[K:bass] x | x6 | x6 | x6 | %20
 E,2- [E,CE]2 [E,G,D]2 |[M:2/4] x4 |] %22

